X:1
T: A Starry Night For A Ramble
N: Sally Sloane, playing one row melodeon
Z:Ian Hayden, 2017
M:3/4
L:1/4
K:A
"lead-in"
E|c2A |E2C|D3|F3|E2A|B2d|c3-|c2E/A/|
|c2A |E2C|D3|F3|E2A|B2c|A3-|A2E|
"song melody"
|:C2E|AEC|D3|F3|E2A|B2d|c3-|c2E|
|C2E |AGF|D3|F3|E2A|B2c|A3-|ABc|
|d3-|dcB|c3-|cBA|B3-|Bcd|e3-|eBc|
|d3-|dcB|c3-|cBA|B3-|G2E|A3-|A3:|
